packages/bezier-icons/icons/checkbox.svg

<svg width="24" height="24" viewBox="0 0 24 24" fill="none" xmlns="http://www.w3.org/2000/svg">
<path fill-rule="evenodd" clip-rule="evenodd" d="M16 5H8C6.34315 5 5 6.34315 5 8V16C5 17.6569 6.34315 19 8 19H16C17.6569 19 19 17.6569 19 16V8C19 6.34315 17.6569 5 16 5ZM8 3C5.23858 3 3 5.23858 3 8V16C3 18.7614 5.23858 21 8 21H16C18.7614 21 21 18.7614 21 16V8C21 5.23858 18.7614 3 16 3H8Z" fill="#313234"/>
<path fill-rule="evenodd" clip-rule="evenodd" d="M10.6666 13.3756L15.3806 8.66154C15.7712 8.27102 16.4043 8.27102 16.7948 8.66154C17.1854 9.05207 17.1854 9.68523 16.7948 10.0758L10.9754 15.8952C10.8048 16.0658 10.5283 16.0658 10.3578 15.8952L7.20499 12.7424C6.81447 12.3519 6.81447 11.7187 7.20499 11.3282C7.59552 10.9377 8.22868 10.9377 8.61921 11.3282L10.6666 13.3756Z" fill="#313234"/>
</svg>

<svg xmlns="http://www.w3.org/2000/svg" width="24" height="24" fill="none" viewBox="0 0 24 24"><path fill="#313234" fill-rule="evenodd" d="M16 5H8a3 3 0 0 0-3 3v8a3 3 0 0 0 3 3h8a3 3 0 0 0 3-3V8a3 3 0 0 0-3-3M8 3a5 5 0 0 0-5 5v8a5 5 0 0 0 5 5h8a5 5 0 0 0 5-5V8a5 5 0 0 0-5-5z" clip-rule="evenodd"/><path fill="#313234" fill-rule="evenodd" d="m10.667 13.376 4.714-4.714a1 1 0 1 1 1.414 1.414l-5.82 5.82a.437.437 0 0 1-.617 0l-3.153-3.154a1 1 0 1 1 1.414-1.414z" clip-rule="evenodd"/></svg>
